build/img/prevue-icon1.svg

<svg width="43" height="45" fill="none" xmlns="http://www.w3.org/2000/svg"><path d="M33 44H10V12h18l5 5v27z"/><path d="M31 18h-4v-4M8 38H1V6h16"/><path d="M19 10V1h18l5 5v27h-7"/><path d="M40 7h-4V3M19 34h-5v6h5v-6zm10 1h-5v5h5v-5zm-5-4h-5v9h5v-9zm-10-9h9m-9-4h9m-9 8h6"/></svg>

<svg width="43" height="45" viewBox="0 0 43 45" fill="none" xmlns="http://www.w3.org/2000/svg">
<path d="M33 44H10V12H28L33 17V44Z" stroke-width="2" stroke-miterlimit="10"/>
<path d="M31 18H27V14" stroke-width="2" stroke-miterlimit="10"/>
<path d="M8 38H1V6H17" stroke-width="2" stroke-miterlimit="10"/>
<path d="M19 10V1H37L42 6V33H35" stroke-width="2" stroke-miterlimit="10"/>
<path d="M40 7H36V3" stroke-width="2" stroke-miterlimit="10"/>
<path d="M19 34H14V40H19V34Z" stroke-width="2" stroke-miterlimit="10"/>
<path d="M29 35H24V40H29V35Z" stroke-width="2" stroke-miterlimit="10"/>
<path d="M24 31H19V40H24V31Z" stroke-width="2" stroke-miterlimit="10"/>
<path d="M14 22H23" stroke-width="2" stroke-miterlimit="10"/>
<path d="M14 18H23" stroke-width="2" stroke-miterlimit="10"/>
<path d="M14 26H20" stroke-width="2" stroke-miterlimit="10"/>
</svg>
